X: 14120
T: Frieze Breeches, The
R: jig
M: 6/8
K: Dmajor
(3F/G/F/ED EFG|Azd cAG|ADD BAG|EAF GFE|
FED EFG|Add cAG|EFG AGE|1 EDC D2 E:|2 EDC D3||
|:d2 e fed|e/f/ed cAG|ADD BAG|EAF GED|
d2 e fed|e/f/ed cAB|EFG AGE|EDC D3:|
|:D{A/}ED =c3|Add cAG|ABc d2 d|ded cAF|
DEG =c3|Adc cAG|EFG AGE|1 EDC D3:|2 EDC D2 c||
|:d2 e fdd|Add fed|c2 d ecA|fAA ecA|
d2 e fdd|Add ede|f/g/aA gec|1 ded d/e/dA:|2 ded d2 e||
fed edc|ded cAG|ADA BAG|EAF GED|
f/g/fd edc|d/e/fd cAG|EFG AGE|EDC Dze|
f{g/}fd edc|ded cAG|ADD BAG|EAF GED|
f3 gfg|afd cAG|EFG AGE|EDC D2 E||

